X: 38
T:My Darling Asleep
R:jig
M:6/8
L:1/8
K:D
fdd cAA|BAG A2G|FAA def|gfg eag|fdd cAA|BAG A2G|FAA def|1 gec d2e:|2 gec
 d2z||
|:FAA Add|FAA BGG|FAA def|gfg eag|fdd cAA|BAG A2G|FAA def|1 gec d2A:|2 g
ec d2e||
